icon/lg/aws-cognito.svg

<?xml version="1.0" encoding="UTF-8"?>
<svg viewBox="0 0 256 256" version="1.1" xmlns="http://www.w3.org/2000/svg" xmlns:xlink="http://www.w3.org/1999/xlink" preserveAspectRatio="xMidYMid" height="1em" width="1em">
  <defs>
    <linearGradient x1="0%" y1="100%" x2="100%" y2="0%" id="linearGradient-1">
      <stop stop-color="#BD0816" offset="0%"/>
      <stop stop-color="#FF5252" offset="100%"/>
    </linearGradient>
  </defs>
  <g>
    <rect fill="url(#linearGradient-1)" x="0" y="0" width="256" height="256"/>
    <path d="M54.2833949,114.585352 L95.5802214,114.585352 L95.5802214,108.241229 L54.2833949,108.241229 L54.2833949,114.585352 Z M196.401659,160.738846 L200.893483,165.224141 L177.303465,188.77987 C176.680836,189.398421 175.867606,189.709284 175.057553,189.709284 C174.244323,189.709284 173.431093,189.398421 172.811641,188.77987 L160.943568,176.93222 L165.435392,172.446925 L175.057553,182.051927 L196.401659,160.738846 Z M211.020735,178.220077 C210.296452,184.183553 207.86947,189.731488 203.990745,194.267536 C201.236564,197.49035 197.7581,200.154882 193.933379,201.969301 C188.803043,204.402272 183.10408,205.325342 177.427355,204.633833 C171.906287,203.961356 166.702887,201.785322 162.36672,198.343635 C154.037468,191.729887 149.831545,181.474612 151.111747,170.908475 C152.322061,160.922826 158.373635,152.212345 167.296926,147.606512 C171.572736,145.401929 176.255161,144.269503 181.023356,144.269503 C182.246377,144.269503 183.478929,144.345633 184.708303,144.49472 C194.670369,145.709619 203.358586,151.796805 207.939356,160.776911 C210.687184,166.163071 211.751372,172.196332 211.020735,178.220077 L211.020735,178.220077 Z M213.600198,157.899851 C208.056894,147.032369 197.542086,139.666842 185.47706,138.198178 C178.180228,137.306828 170.88975,138.613718 164.380735,141.969759 C153.58638,147.539899 146.267311,158.074315 144.802862,170.14718 C143.258996,182.914728 148.344859,195.314316 158.414932,203.311083 C163.665982,207.479172 169.974866,210.115155 176.655422,210.930375 C178.135755,211.111182 179.616087,211.2 181.093243,211.2 C186.468183,211.2 191.776414,210.013649 196.65897,207.698044 C201.287391,205.502978 205.496491,202.280163 208.822473,198.384872 C213.514428,192.897205 216.456033,186.188295 217.32962,178.981372 C218.212736,171.701491 216.923005,164.412093 213.600198,157.899851 L213.600198,157.899851 Z M86.0501846,133.617721 L98.7569005,133.617721 L98.7569005,127.273598 L86.0501846,127.273598 L86.0501846,133.617721 Z M54.2833949,133.617721 L79.6968266,133.617721 L79.6968266,127.273598 L54.2833949,127.273598 L54.2833949,133.617721 Z M51.5387443,51.1441229 L193.625241,51.1441229 C197.367369,51.1441229 200.410628,54.8459187 200.410628,59.3946547 L200.410628,82.8647376 L190.88059,82.8647376 L190.88059,67.0044301 C190.88059,65.2534522 189.460615,63.8323686 187.703912,63.8323686 L114.640295,63.8323686 C112.883592,63.8323686 111.463616,65.2534522 111.463616,67.0044301 L111.463616,82.8647376 L44.7533581,82.8647376 L44.7533581,59.3946547 C44.7533581,54.922048 47.8633267,51.1441229 51.5387443,51.1441229 L51.5387443,51.1441229 Z M151.219754,81.9448397 C158.596002,81.9448397 164.596749,87.8765946 164.596749,95.165992 C164.596749,99.971665 161.944222,104.393519 157.674765,106.709124 C153.621323,108.907362 148.735591,108.878813 144.736152,106.712296 C140.482579,104.390347 137.842758,99.9684928 137.842758,95.165992 C137.842758,87.8765946 143.840328,81.9448397 151.219754,81.9448397 L151.219754,81.9448397 Z M44.7533581,150.746853 L44.7533581,89.2088605 L111.463616,89.2088605 L111.463616,143.133905 C111.463616,144.888055 112.883592,146.305967 114.640295,146.305967 L147.849297,146.305967 L147.849297,139.961844 L121.317675,139.961844 C121.594045,127.267254 130.034482,116.301437 142.188455,112.799482 C147.804824,115.422776 154.510793,115.448153 160.212932,112.796309 C167.131739,114.794708 173.186489,119.416402 176.938147,125.611438 L182.373444,122.325182 C178.523309,115.977887 172.681397,111.023127 165.90554,108.142895 C169.08222,104.621907 170.950107,100.04145 170.950107,95.165992 C170.950107,84.3778109 162.096702,75.6007168 151.219754,75.6007168 C140.339628,75.6007168 131.489401,84.3778109 131.489401,95.165992 C131.489401,100.022418 133.338228,104.587014 136.49267,108.108003 C128.001407,111.679744 121.368501,118.375965 117.816974,126.632842 L117.816974,70.1764915 L184.527233,70.1764915 L184.527233,120.929475 L190.88059,120.929475 L190.88059,89.2088605 L200.410628,89.2088605 L200.413804,136.789782 L206.767162,136.789782 L206.763985,59.3946547 C206.763985,51.3471347 200.871246,44.8 193.625241,44.8 L51.5387443,44.8 C44.2927395,44.8 38.4,51.3471347 38.4,59.3946547 L38.4,150.746853 C38.4,158.794373 44.2927395,165.338335 51.5387443,165.338335 L136.877048,165.338335 L136.877048,158.994212 L51.5387443,158.994212 C47.8633267,158.994212 44.7533581,155.21946 44.7533581,150.746853 L44.7533581,150.746853 Z" fill="#FFFFFF"/>
  </g>
</svg>

<svg width="256" height="256" xmlns="http://www.w3.org/2000/svg" preserveAspectRatio="xMidYMid"><defs><linearGradient x1="0%" y1="100%" x2="100%" y2="0%" id="a"><stop stop-color="#BD0816" offset="0%"/><stop stop-color="#FF5252" offset="100%"/></linearGradient></defs><path fill="url(#a)" d="M0 0h256v256H0z"/><path d="M54.283 114.585H95.58v-6.344H54.283v6.344Zm142.119 46.154 4.491 4.485-23.59 23.556a3.181 3.181 0 0 1-4.491 0l-11.868-11.848 4.491-4.485 9.623 9.605 21.344-21.313Zm14.619 17.481c-.725 5.964-3.152 11.511-7.03 16.048a30.568 30.568 0 0 1-10.058 7.701 29.975 29.975 0 0 1-16.506 2.665 30.046 30.046 0 0 1-15.06-6.29c-8.33-6.614-12.535-16.87-11.255-27.436a30.296 30.296 0 0 1 16.185-23.301 29.875 29.875 0 0 1 13.726-3.337c1.223 0 2.456.076 3.685.225 9.962 1.215 18.65 7.302 23.231 16.282a30.238 30.238 0 0 1 3.082 17.443Zm2.58-20.32c-5.544-10.868-16.059-18.233-28.124-19.702a36.25 36.25 0 0 0-21.096 3.772 36.639 36.639 0 0 0-19.578 28.177c-1.544 12.768 3.542 25.167 13.612 33.164a36.421 36.421 0 0 0 18.24 7.62c1.48.18 2.961.269 4.438.269a36.288 36.288 0 0 0 15.566-3.502 36.927 36.927 0 0 0 12.163-9.313c4.692-5.488 7.634-12.197 8.508-19.404a36.537 36.537 0 0 0-3.73-21.081ZM86.05 133.618h12.706v-6.344H86.05v6.344Zm-31.768 0h25.414v-6.344H54.283v6.344ZM51.54 51.144h142.086c3.742 0 6.786 3.702 6.786 8.25v23.47h-9.53v-15.86a3.173 3.173 0 0 0-3.177-3.172H114.64a3.173 3.173 0 0 0-3.176 3.172v15.86h-66.71v-23.47c0-4.472 3.11-8.25 6.785-8.25Zm99.68 30.8c7.377 0 13.378 5.933 13.378 13.222 0 4.806-2.653 9.228-6.922 11.543a13.603 13.603 0 0 1-12.939.003c-4.253-2.322-6.893-6.744-6.893-11.546 0-7.29 5.997-13.221 13.377-13.221ZM44.754 150.748V89.209h66.71v53.925a3.171 3.171 0 0 0 3.177 3.172h33.21v-6.344h-26.532c.276-12.695 8.716-23.66 20.87-27.163 5.617 2.624 12.323 2.65 18.025-.003 6.919 1.999 12.973 6.62 16.725 12.815l5.435-3.286c-3.85-6.347-9.692-11.302-16.467-14.182 3.176-3.521 5.044-8.102 5.044-12.977 0-10.788-8.853-19.565-19.73-19.565-10.88 0-19.73 8.777-19.73 19.565 0 4.856 1.848 9.421 5.003 12.942a35.169 35.169 0 0 0-18.676 18.525V70.176h66.71v50.753h6.354V89.21h9.53l.003 47.58h6.353l-.003-77.394c0-8.048-5.893-14.595-13.139-14.595H51.54c-7.246 0-13.139 6.547-13.139 14.595v91.352c0 8.047 5.893 14.591 13.139 14.591h85.338v-6.344H51.539c-3.676 0-6.786-3.775-6.786-8.247Z" fill="#FFF"/></svg>
